src/assets/image-expand.svg

<svg fill="none" height="20" viewBox="0 0 20 20" width="20" xmlns="http://www.w3.org/2000/svg"><path clip-rule="evenodd" d="m3.52441 12.7549c0-.4142-.33578-.75-.75-.75-.41421 0-.75.3358-.75.75v4.4466c0 .4142.33579.75.75.75h4.44665c.41422 0 .75-.3358.75-.75s-.33578-.75-.75-.75h-2.63614l4.27814-4.2781c.29289-.2929.29289-.7678 0-1.0607-.2929-.2929-.76777-.2929-1.06066 0l-4.27799 4.278zm7.69559-3.91598c-.2929-.29289-.2929-.76776 0-1.06066l4.2781-4.27813h-2.6362c-.4142 0-.75-.33579-.75-.75 0-.41422.3358-.75.75-.75h4.4467c.4142 0 .75.33579.75.75v4.44665c0 .41421-.3358.75-.75.75s-.75-.33579-.75-.75v-2.63584l-4.278 4.27798c-.2929.2929-.7678.2929-1.0606 0z" fill="#343440" fill-rule="evenodd"/></svg>

<svg width="20" height="20" viewBox="0 0 20 20" fill="none" xmlns="http://www.w3.org/2000/svg">
<path fill-rule="evenodd" clip-rule="evenodd" d="M3.52441 12.7549C3.52441 12.3407 3.18863 12.0049 2.77441 12.0049C2.3602 12.0049 2.02441 12.3407 2.02441 12.7549L2.02441 17.2015C2.02441 17.6157 2.3602 17.9515 2.77441 17.9515L7.22106 17.9515C7.63528 17.9515 7.97106 17.6157 7.97106 17.2015C7.97106 16.7873 7.63528 16.4515 7.22106 16.4515L4.58492 16.4515L8.86306 12.1734C9.15595 11.8805 9.15595 11.4056 8.86306 11.1127C8.57016 10.8198 8.09529 10.8198 7.8024 11.1127L3.52441 15.3907L3.52441 12.7549ZM11.22 8.83892C10.9271 8.54603 10.9271 8.07116 11.22 7.77826L15.4981 3.50013L12.8619 3.50013C12.4477 3.50013 12.1119 3.16434 12.1119 2.75013C12.1119 2.33591 12.4477 2.00013 12.8619 2.00013L17.3086 2.00013C17.7228 2.00013 18.0586 2.33592 18.0586 2.75013L18.0586 7.19678C18.0586 7.61099 17.7228 7.94678 17.3086 7.94678C16.8944 7.94678 16.5586 7.61099 16.5586 7.19678L16.5586 4.56094L12.2806 8.83892C11.9877 9.13182 11.5128 9.13182 11.22 8.83892Z" fill="#343440"/>
</svg>
